X:1
T:Lads of Tarland
T:Lads of Tarland
T:Alexander Walker
C:Alexander Walker
L:1/8
M:6/8
K:G
V:1 treble 
V:1
 B/A/ | GAG GDB, | DED DBA | GAG GDB, | AA,A, A,2 D | GAG GDB, | DEG A2 B | cde DEF | GG,G, G,2 :: %9
 d | gab gdB | GBd edB | gab gdB | eAA A2 f |1 gab gdB | GBd e2 d | cde DEF | GG,G, G,2 :|2 %18
 gab fga | efg dcB | cde AGF | GG,G, G,3 || %22

